svgs/sharp-solid/plate-utensils.svg

<svg xmlns="http://www.w3.org/2000/svg" viewBox="0 0 640 512"><!--! Font Awesome Pro 6.6.0 by @fontawesome - https://fontawesome.com License - https://fontawesome.com/license (Commercial License) Copyright 2024 Fonticons, Inc. --><path d="M56 16L40 16 0 152c0 41.5 31.6 75.6 72 79.6L72 472l0 24 48 0 0-24 0-240.4c40.4-4 72-38.1 72-79.6L152 16l-16 0 0 136-16 0L104 16 88 16 72 152l-16 0L56 16zm584 0s-128 16-128 144l0 160 80 0 0 152 0 24 48 0 0-24 0-152 0-104 0-24 0-176zM336 32c-49.8 0-95.9 16.3-133.1 43.8L222.7 143c0 0 0 0 0 0c29-29 69-47 113.3-47c63.3 0 118.1 36.8 144 90.2l0-26.2c0-25.1 4.2-46.8 11.2-65.5C450.9 55.8 396.2 32 336 32zm0 384c-88.4 0-160-71.6-160-160c0-4.2 .2-8.3 .5-12.4c-7.5 5.3-15.7 9.7-24.5 13.1l0 127.1C192.5 441.9 259.8 480 336 480c89.4 0 166.5-52.3 202.4-128L512 352l-32 0 0-26.2C454.1 379.2 399.3 416 336 416zM464 256a128 128 0 1 0 -256 0 128 128 0 1 0 256 0z"/></svg>

<svg xmlns="http://www.w3.org/2000/svg" viewBox="0 0 640 512"><!--! Font Awesome Pro 6.4.0 by @fontawesome - https://fontawesome.com License - https://fontawesome.com/license (Commercial License) Copyright 2023 Fonticons, Inc. --><path d="M56 16H40L0 152c0 41.5 31.6 75.6 72 79.6V472v24h48V472 231.6c40.4-4 72-38.1 72-79.6L152 16H136V152H120L104 16H88L72 152H56V16zm584 0s-128 16-128 144V320h80V472v24h48V472 320 216 192 16zM336 32c-49.8 0-95.9 16.3-133.1 43.8L222.7 143l0 0c29-29 69-47 113.3-47c63.3 0 118.1 36.8 144 90.2V160c0-25.1 4.2-46.8 11.2-65.5C450.9 55.8 396.2 32 336 32zm0 384c-88.4 0-160-71.6-160-160c0-4.2 .2-8.3 .5-12.4c-7.5 5.3-15.7 9.7-24.5 13.1V383.8C192.5 441.9 259.8 480 336 480c89.4 0 166.5-52.3 202.4-128H512 480V325.8C454.1 379.2 399.3 416 336 416zM464 256a128 128 0 1 0 -256 0 128 128 0 1 0 256 0z"/></svg>
